X: 1316
T: Kırdın Ümmîdimi
C: Fehmi Tokay
O: Turkey
F: http://compmusic.upf.edu/node/140
N: segah--sarki--aksak--kirdin_ummidimi--fehmi_tokay
N: makam= segah
N: form= sarki
N: usul= aksak = 9/8
M: 9/8
L: 1/16
K: C _1/4B _1/4e ^f 
Q: 1/4=114
%%MIDI tuningsystem comma53
B2B^A G2A2 B4 c4 (3BAB | c2 (3B^ABd2 dedc cBB4A2  | 
w:  *  Kır *  *  dın_ üm mî  |  *  *  *  *  di mi  *  yık *  *  *  tın   | 
B4 z2Bc d4 d2e2 fg | fe dg(3fef edd4de dcB^A  | 
w:  *  şu  gö nül  lâ  |  *  *  *  *  ne *  *  si *  ni   SAZ  | 
B2B^A G2A2 B4 c4 (3BAB | c2 (3B^ABd2 dedc cBB4A2  | 
w:  *  Kır *  *  dın_ üm mî  |  *  *  *  *  di mi  *  yık *  *  *  tın   | 
B4 z2Bc d4 d2e2 fg | fe dg(3fef edd4de dcBc  | 
w:  *  şu  gö nül  lâ  |  *  *  *  *  ne *  *  si *  ni   SAZ  | 
d4 z2de f2g2 g4 (3agf | g4e2 fgfe edd4(3cB^A  | 
w:  *  Dil_ u nut *  maz   |  *  ö lür_ *  am *  *  *  ma   | 
B4 z2Bc d2e2 =f2e2 d2 | dc cedc (3cB^AB4de dcBc  | 
w:  *  yi ne  bir  *  ta  |  *  *  *  *  ne *  si *  *  ni   SAZ  | 
d4 z2de f2g2 g4 (3agf | g4e2 fgfe edd4(3cB^A  | 
w:  *  Dil_ u nut *  maz   |  *  ö lür_ *  am *  *  *  ma   | 
B4 z2Bc d2e2 =f2e2 d2 | dc cedc (3cB^AB4b3^aga  | 
w:  *  yi ne  bir  *  ta  |  *  *  *  *  ne *  si *  *  ni   SAZ  | 
b4 zg2b b4 c'2b2 ^a2 | ^a3gag f^ef4g4=a2  | \
w:  *  Gün ler_ ay lar   |  *  *  ge *  çe *  cek  an  | 
f_2/4ed/c/d d2de f2g2 a2_b2 ag | 
w:  *  *  *  *  *  *  ma ya cak *  sın_  | 
f_2/4e edd2 gff4g4^a2  | b4 g3c' c'3d' c'2_b2 a2 | \
w:  *  *  *  *  a dı *  mı   SAZ  |  *  Gün ler_ ay *  lar   | 
g3ff_2/4e edd4d4ed  | 
w:  *  *  ge *  çe *  cek  an  | 
cBc4d_2/4e f2g2 a2_b2 ag | f_2/4e dg(3fef edd4de dcBc  | 
w:  *  *  *  ma ya cak *  sın_  |  *  *  *  *  a *  *  dı *  mı   SAZ  | 
d4 z2de f2g2 g4 (3agf | g4e2 fgfe edd4(3cB^A  | 
w:  *  Dil_ u nut *  maz   |  *  ö lür_ *  am *  *  *  ma   | 
B4 z2Bc d2e2 =f2e2 d2 | dc cedc (3cB^AB4de dcBc  | 
w:  *  yi ne  bir  *  ta  |  *  *  *  *  ne *  si *  *  ni   SAZ  | 
d4 z2de f2g2 g4 (3agf | g4e2 fgfe edd4(3cB^A  | 
w:  *  Dil_ u nut *  maz   |  *  ö lür_ *  am *  *  *  ma   | 
B4 z2Bc d2e2 =f2e2 d2 | dc cedc (3cB^AB4|
w:  *  yi ne  bir  *  ta  |  *  *  *  *  ne *  si *  *  ni    | 


